static/img/mobile/badges-numbers-dark.svg

<svg fill="none" height="226" viewBox="0 0 945 226" width="945" xmlns="http://www.w3.org/2000/svg" xmlns:xlink="http://www.w3.org/1999/xlink"><clipPath id="a"><path d="m0 0h945v226h-945z"/></clipPath><g clip-path="url(#a)"><path d="m0 0h471.5v112h-471.5z" fill="#252a2e"/><rect fill="#019aeb" height="28" rx="4" width="49" x="211.25" y="42"/><path d="m231.009 55.2715c0 1.9687-.415 3.4385-1.244 4.4092-.83.9707-2.085 1.456-3.767 1.456-.592 0-1.041-.0319-1.347-.0957v-1.6953c.383.0957.784.1436 1.203.1436.707 0 1.288-.1026 1.744-.3077.455-.2096.804-.5354 1.046-.9775.241-.4466.38-1.0596.417-1.8389h-.082c-.265.4284-.57.7292-.917.9024-.346.1732-.779.2597-1.298.2597-.871 0-1.557-.278-2.058-.8339-.501-.5606-.752-1.3376-.752-2.3311 0-1.071.303-1.9163.909-2.5361.611-.6244 1.44-.9366 2.489-.9366.738 0 1.383.1732 1.934.5196.556.3463.982.8499 1.278 1.5107.297.6563.445 1.4401.445 2.3516zm-3.616-2.6865c-.438 0-.78.1504-1.026.4511-.246.3008-.369.7338-.369 1.2989 0 .483.112.8658.335 1.1484s.563.4238 1.019.4238c.428 0 .795-.139 1.1-.417.305-.2825.458-.6061.458-.9707 0-.5423-.143-1.0003-.431-1.374-.282-.3737-.644-.5605-1.086-.5605zm11.864 2.6865c0 1.9687-.415 3.4385-1.244 4.4092-.83.9707-2.085 1.456-3.767 1.456-.592 0-1.041-.0319-1.347-.0957v-1.6953c.383.0957.784.1436 1.204.1436.706 0 1.287-.1026 1.743-.3077.455-.2096.804-.5354 1.046-.9775.241-.4466.38-1.0596.417-1.8389h-.082c-.265.4284-.57.7292-.916.9024-.347.1732-.78.2597-1.299.2597-.871 0-1.557-.278-2.058-.8339-.501-.5606-.752-1.3376-.752-2.3311 0-1.071.303-1.9163.909-2.5361.611-.6244 1.44-.9366 2.489-.9366.738 0 1.383.1732 1.934.5196.556.3463.982.8499 1.278 1.5107.297.6563.445 1.4401.445 2.3516zm-3.616-2.6865c-.438 0-.78.1504-1.026.4511-.246.3008-.369.7338-.369 1.2989 0 .483.112.8658.335 1.1484s.563.4238 1.019.4238c.428 0 .795-.139 1.1-.417.306-.2825.458-.6061.458-.9707 0-.5423-.143-1.0003-.43-1.374-.283-.3737-.645-.5605-1.087-.5605zm7.605 4.2314h-2.645v-1.4971h2.645v-2.666h1.497v2.666h2.646v1.4971h-2.646v2.6318h-1.497z" fill="#fff"/><path d="m0 0h471.5v112h-471.5z" fill="#252a2e" transform="translate(473.5)"/><rect fill="#019aeb" height="28" rx="14" width="49" x="684.75" y="42"/><path d="m704.509 55.2715c0 1.9687-.415 3.4385-1.244 4.4092-.83.9707-2.085 1.456-3.767 1.456-.592 0-1.041-.0319-1.347-.0957v-1.6953c.383.0957.784.1436 1.203.1436.707 0 1.288-.1026 1.744-.3077.455-.2096.804-.5354 1.046-.9775.241-.4466.38-1.0596.417-1.8389h-.082c-.265.4284-.57.7292-.917.9024-.346.1732-.779.2597-1.298.2597-.871 0-1.557-.278-2.058-.8339-.501-.5606-.752-1.3376-.752-2.3311 0-1.071.303-1.9163.909-2.5361.611-.6244 1.44-.9366 2.489-.9366.738 0 1.383.1732 1.934.5196.556.3463.982.8499 1.278 1.5107.297.6563.445 1.4401.445 2.3516zm-3.616-2.6865c-.438 0-.78.1504-1.026.4511-.246.3008-.369.7338-.369 1.2989 0 .483.112.8658.335 1.1484s.563.4238 1.019.4238c.428 0 .795-.139 1.1-.417.305-.2825.458-.6061.458-.9707 0-.5423-.143-1.0003-.431-1.374-.282-.3737-.644-.5605-1.086-.5605zm11.864 2.6865c0 1.9687-.415 3.4385-1.244 4.4092-.83.9707-2.085 1.456-3.767 1.456-.592 0-1.041-.0319-1.347-.0957v-1.6953c.383.0957.784.1436 1.204.1436.706 0 1.287-.1026 1.743-.3077.455-.2096.804-.5354 1.046-.9775.241-.4466.38-1.0596.417-1.8389h-.082c-.265.4284-.57.7292-.916.9024-.347.1732-.78.2597-1.299.2597-.871 0-1.557-.278-2.058-.8339-.501-.5606-.752-1.3376-.752-2.3311 0-1.071.303-1.9163.909-2.5361.611-.6244 1.44-.9366 2.489-.9366.738 0 1.383.1732 1.934.5196.556.3463.982.8499 1.278 1.5107.297.6563.445 1.4401.445 2.3516zm-3.616-2.6865c-.438 0-.78.1504-1.026.4511-.246.3008-.369.7338-.369 1.2989 0 .483.112.8658.335 1.1484s.563.4238 1.019.4238c.428 0 .795-.139 1.1-.417.306-.2825.458-.6061.458-.9707 0-.5423-.143-1.0003-.43-1.374-.283-.3737-.645-.5605-1.087-.5605zm7.605 4.2314h-2.645v-1.4971h2.645v-2.666h1.497v2.666h2.646v1.4971h-2.646v2.6318h-1.497z" fill="#fff"/><path d="m0 0h313.667v112h-313.667z" fill="#252a2e" transform="translate(0 114)"/><rect fill="#019aeb" height="24" rx="4" width="41" x="136.333" y="158"/><path d="m151.839 169.271c0 1.969-.414 3.439-1.244 4.41-.829.97-2.085 1.456-3.767 1.456-.592 0-1.041-.032-1.346-.096v-1.695c.383.095.784.143 1.203.143.706 0 1.287-.102 1.743-.307.456-.21.804-.536 1.046-.978.242-.447.381-1.059.417-1.839h-.082c-.264.429-.57.729-.916.903-.346.173-.779.259-1.299.259-.87 0-1.556-.278-2.058-.834-.501-.56-.751-1.337-.751-2.331 0-1.071.303-1.916.909-2.536.61-.624 1.44-.936 2.488-.936.738 0 1.383.173 1.935.519.556.347.982.85 1.278 1.511.296.656.444 1.44.444 2.351zm-3.616-2.686c-.437 0-.779.15-1.025.451s-.37.734-.37 1.299c0 .483.112.866.335 1.148.224.283.563.424 1.019.424.428 0 .795-.139 1.101-.417.305-.282.458-.606.458-.97 0-.543-.144-1.001-.431-1.374-.283-.374-.645-.561-1.087-.561zm11.864 2.686c0 1.969-.414 3.439-1.244 4.41-.829.97-2.085 1.456-3.766 1.456-.593 0-1.042-.032-1.347-.096v-1.695c.383.095.784.143 1.203.143.706 0 1.287-.102 1.743-.307.456-.21.805-.536 1.046-.978.242-.447.381-1.059.417-1.839h-.082c-.264.429-.57.729-.916.903-.346.173-.779.259-1.299.259-.87 0-1.556-.278-2.057-.834-.502-.56-.752-1.337-.752-2.331 0-1.071.303-1.916.909-2.536.61-.624 1.44-.936 2.488-.936.738 0 1.383.173 1.935.519.556.347.982.85 1.278 1.511.296.656.444 1.44.444 2.351zm-3.616-2.686c-.437 0-.779.15-1.025.451s-.369.734-.369 1.299c0 .483.111.866.334 1.148.224.283.563.424 1.019.424.428 0 .795-.139 1.101-.417.305-.282.458-.606.458-.97 0-.543-.144-1.001-.431-1.374-.283-.374-.645-.561-1.087-.561zm7.606 4.231h-2.646v-1.497h2.646v-2.666h1.497v2.666h2.645v1.497h-2.645v2.632h-1.497z" fill="#fff"/><path d="m0 0h313.667v112h-313.667z" fill="#252a2e" transform="translate(315.667 114)"/><rect fill="#019aeb" height="28" rx="4" width="49" x="448" y="156"/><path d="m467.759 169.271c0 1.969-.415 3.439-1.244 4.41-.83.97-2.085 1.456-3.767 1.456-.592 0-1.041-.032-1.347-.096v-1.695c.383.095.784.143 1.203.143.707 0 1.288-.102 1.744-.307.455-.21.804-.536 1.046-.978.241-.447.38-1.059.417-1.839h-.082c-.265.429-.57.729-.917.903-.346.173-.779.259-1.298.259-.871 0-1.557-.278-2.058-.834-.501-.56-.752-1.337-.752-2.331 0-1.071.303-1.916.909-2.536.611-.624 1.44-.936 2.489-.936.738 0 1.383.173 1.934.519.556.347.982.85 1.278 1.511.297.656.445 1.44.445 2.351zm-3.616-2.686c-.438 0-.78.15-1.026.451s-.369.734-.369 1.299c0 .483.112.866.335 1.148.223.283.563.424 1.019.424.428 0 .795-.139 1.1-.417.305-.282.458-.606.458-.97 0-.543-.143-1.001-.431-1.374-.282-.374-.644-.561-1.086-.561zm11.864 2.686c0 1.969-.415 3.439-1.244 4.41-.83.97-2.085 1.456-3.767 1.456-.592 0-1.041-.032-1.347-.096v-1.695c.383.095.784.143 1.204.143.706 0 1.287-.102 1.743-.307.455-.21.804-.536 1.046-.978.241-.447.38-1.059.417-1.839h-.082c-.265.429-.57.729-.916.903-.347.173-.78.259-1.299.259-.871 0-1.557-.278-2.058-.834-.501-.56-.752-1.337-.752-2.331 0-1.071.303-1.916.909-2.536.611-.624 1.44-.936 2.489-.936.738 0 1.383.173 1.934.519.556.347.982.85 1.278 1.511.297.656.445 1.44.445 2.351zm-3.616-2.686c-.438 0-.78.15-1.026.451s-.369.734-.369 1.299c0 .483.112.866.335 1.148.223.283.563.424 1.019.424.428 0 .795-.139 1.1-.417.306-.282.458-.606.458-.97 0-.543-.143-1.001-.43-1.374-.283-.374-.645-.561-1.087-.561zm7.605 4.231h-2.645v-1.497h2.645v-2.666h1.497v2.666h2.646v1.497h-2.646v2.632h-1.497z" fill="#fff"/><path d="m0 0h313.667v112h-313.667z" fill="#252a2e" transform="translate(631.333 114)"/><rect fill="#019aeb" height="32" rx="4" width="49" x="763.667" y="154"/><path d="m783.425 169.271c0 1.969-.414 3.439-1.244 4.41-.829.97-2.085 1.456-3.766 1.456-.593 0-1.042-.032-1.347-.096v-1.695c.383.095.784.143 1.203.143.706 0 1.287-.102 1.743-.307.456-.21.805-.536 1.046-.978.242-.447.381-1.059.417-1.839h-.082c-.264.429-.57.729-.916.903-.346.173-.779.259-1.299.259-.87 0-1.556-.278-2.057-.834-.502-.56-.752-1.337-.752-2.331 0-1.071.303-1.916.909-2.536.61-.624 1.44-.936 2.488-.936.738 0 1.383.173 1.935.519.556.347.982.85 1.278 1.511.296.656.444 1.44.444 2.351zm-3.616-2.686c-.437 0-.779.15-1.025.451s-.369.734-.369 1.299c0 .483.111.866.335 1.148.223.283.562.424 1.018.424.428 0 .795-.139 1.101-.417.305-.282.458-.606.458-.97 0-.543-.144-1.001-.431-1.374-.283-.374-.645-.561-1.087-.561zm11.864 2.686c0 1.969-.414 3.439-1.244 4.41-.829.97-2.085 1.456-3.766 1.456-.593 0-1.042-.032-1.347-.096v-1.695c.383.095.784.143 1.203.143.706 0 1.287-.102 1.743-.307.456-.21.805-.536 1.046-.978.242-.447.381-1.059.417-1.839h-.082c-.264.429-.57.729-.916.903-.346.173-.779.259-1.299.259-.87 0-1.556-.278-2.057-.834-.502-.56-.752-1.337-.752-2.331 0-1.071.303-1.916.909-2.536.611-.624 1.44-.936 2.488-.936.738 0 1.383.173 1.935.519.556.347.982.85 1.278 1.511.296.656.444 1.44.444 2.351zm-3.616-2.686c-.437 0-.779.15-1.025.451s-.369.734-.369 1.299c0 .483.111.866.335 1.148.223.283.562.424 1.018.424.428 0 .795-.139 1.101-.417.305-.282.458-.606.458-.97 0-.543-.144-1.001-.431-1.374-.283-.374-.645-.561-1.087-.561zm7.606 4.231h-2.646v-1.497h2.646v-2.666h1.497v2.666h2.645v1.497h-2.645v2.632h-1.497z" fill="#fff"/></g></svg>

<svg width="945" height="226" viewBox="0 0 945 226" fill="none" xmlns="http://www.w3.org/2000/svg">
<g clip-path="url(#clip0_471_97432)">
<rect width="471.5" height="112" fill="#252A2E"/>
<rect x="211.25" y="42" width="49" height="28" rx="4" fill="#019AEB"/>
<path d="M231.009 55.2715C231.009 57.2402 230.594 58.71 229.765 59.6807C228.935 60.6514 227.68 61.1367 225.998 61.1367C225.406 61.1367 224.957 61.1048 224.651 61.041V59.3457C225.034 59.4414 225.435 59.4893 225.854 59.4893C226.561 59.4893 227.142 59.3867 227.598 59.1816C228.053 58.972 228.402 58.6462 228.644 58.2041C228.885 57.7575 229.024 57.1445 229.061 56.3652H228.979C228.714 56.7936 228.409 57.0944 228.062 57.2676C227.716 57.4408 227.283 57.5273 226.764 57.5273C225.893 57.5273 225.207 57.2493 224.706 56.6934C224.205 56.1328 223.954 55.3558 223.954 54.3623C223.954 53.2913 224.257 52.446 224.863 51.8262C225.474 51.2018 226.303 50.8896 227.352 50.8896C228.09 50.8896 228.735 51.0628 229.286 51.4092C229.842 51.7555 230.268 52.2591 230.564 52.9199C230.861 53.5762 231.009 54.36 231.009 55.2715ZM227.393 52.585C226.955 52.585 226.613 52.7354 226.367 53.0361C226.121 53.3369 225.998 53.7699 225.998 54.335C225.998 54.818 226.11 55.2008 226.333 55.4834C226.556 55.766 226.896 55.9072 227.352 55.9072C227.78 55.9072 228.147 55.7682 228.452 55.4902C228.757 55.2077 228.91 54.8841 228.91 54.5195C228.91 53.9772 228.767 53.5192 228.479 53.1455C228.197 52.7718 227.835 52.585 227.393 52.585ZM239.257 55.2715C239.257 57.2402 238.842 58.71 238.013 59.6807C237.183 60.6514 235.928 61.1367 234.246 61.1367C233.654 61.1367 233.205 61.1048 232.899 61.041V59.3457C233.282 59.4414 233.683 59.4893 234.103 59.4893C234.809 59.4893 235.39 59.3867 235.846 59.1816C236.301 58.972 236.65 58.6462 236.892 58.2041C237.133 57.7575 237.272 57.1445 237.309 56.3652H237.227C236.962 56.7936 236.657 57.0944 236.311 57.2676C235.964 57.4408 235.531 57.5273 235.012 57.5273C234.141 57.5273 233.455 57.2493 232.954 56.6934C232.453 56.1328 232.202 55.3558 232.202 54.3623C232.202 53.2913 232.505 52.446 233.111 51.8262C233.722 51.2018 234.551 50.8896 235.6 50.8896C236.338 50.8896 236.983 51.0628 237.534 51.4092C238.09 51.7555 238.516 52.2591 238.812 52.9199C239.109 53.5762 239.257 54.36 239.257 55.2715ZM235.641 52.585C235.203 52.585 234.861 52.7354 234.615 53.0361C234.369 53.3369 234.246 53.7699 234.246 54.335C234.246 54.818 234.358 55.2008 234.581 55.4834C234.804 55.766 235.144 55.9072 235.6 55.9072C236.028 55.9072 236.395 55.7682 236.7 55.4902C237.006 55.2077 237.158 54.8841 237.158 54.5195C237.158 53.9772 237.015 53.5192 236.728 53.1455C236.445 52.7718 236.083 52.585 235.641 52.585ZM243.246 56.8164H240.601V55.3193H243.246V52.6533H244.743V55.3193H247.389V56.8164H244.743V59.4482H243.246V56.8164Z" fill="white"/>
<rect width="471.5" height="112" transform="translate(473.5)" fill="#252A2E"/>
<rect x="684.75" y="42" width="49" height="28" rx="14" fill="#019AEB"/>
<path d="M704.509 55.2715C704.509 57.2402 704.094 58.71 703.265 59.6807C702.435 60.6514 701.18 61.1367 699.498 61.1367C698.906 61.1367 698.457 61.1048 698.151 61.041V59.3457C698.534 59.4414 698.935 59.4893 699.354 59.4893C700.061 59.4893 700.642 59.3867 701.098 59.1816C701.553 58.972 701.902 58.6462 702.144 58.2041C702.385 57.7575 702.524 57.1445 702.561 56.3652H702.479C702.214 56.7936 701.909 57.0944 701.562 57.2676C701.216 57.4408 700.783 57.5273 700.264 57.5273C699.393 57.5273 698.707 57.2493 698.206 56.6934C697.705 56.1328 697.454 55.3558 697.454 54.3623C697.454 53.2913 697.757 52.446 698.363 51.8262C698.974 51.2018 699.803 50.8896 700.852 50.8896C701.59 50.8896 702.235 51.0628 702.786 51.4092C703.342 51.7555 703.768 52.2591 704.064 52.9199C704.361 53.5762 704.509 54.36 704.509 55.2715ZM700.893 52.585C700.455 52.585 700.113 52.7354 699.867 53.0361C699.621 53.3369 699.498 53.7699 699.498 54.335C699.498 54.818 699.61 55.2008 699.833 55.4834C700.056 55.766 700.396 55.9072 700.852 55.9072C701.28 55.9072 701.647 55.7682 701.952 55.4902C702.257 55.2077 702.41 54.8841 702.41 54.5195C702.41 53.9772 702.267 53.5192 701.979 53.1455C701.697 52.7718 701.335 52.585 700.893 52.585ZM712.757 55.2715C712.757 57.2402 712.342 58.71 711.513 59.6807C710.683 60.6514 709.428 61.1367 707.746 61.1367C707.154 61.1367 706.705 61.1048 706.399 61.041V59.3457C706.782 59.4414 707.183 59.4893 707.603 59.4893C708.309 59.4893 708.89 59.3867 709.346 59.1816C709.801 58.972 710.15 58.6462 710.392 58.2041C710.633 57.7575 710.772 57.1445 710.809 56.3652H710.727C710.462 56.7936 710.157 57.0944 709.811 57.2676C709.464 57.4408 709.031 57.5273 708.512 57.5273C707.641 57.5273 706.955 57.2493 706.454 56.6934C705.953 56.1328 705.702 55.3558 705.702 54.3623C705.702 53.2913 706.005 52.446 706.611 51.8262C707.222 51.2018 708.051 50.8896 709.1 50.8896C709.838 50.8896 710.483 51.0628 711.034 51.4092C711.59 51.7555 712.016 52.2591 712.312 52.9199C712.609 53.5762 712.757 54.36 712.757 55.2715ZM709.141 52.585C708.703 52.585 708.361 52.7354 708.115 53.0361C707.869 53.3369 707.746 53.7699 707.746 54.335C707.746 54.818 707.858 55.2008 708.081 55.4834C708.304 55.766 708.644 55.9072 709.1 55.9072C709.528 55.9072 709.895 55.7682 710.2 55.4902C710.506 55.2077 710.658 54.8841 710.658 54.5195C710.658 53.9772 710.515 53.5192 710.228 53.1455C709.945 52.7718 709.583 52.585 709.141 52.585ZM716.746 56.8164H714.101V55.3193H716.746V52.6533H718.243V55.3193H720.889V56.8164H718.243V59.4482H716.746V56.8164Z" fill="white"/>
<rect width="313.667" height="112" transform="translate(0 114)" fill="#252A2E"/>
<rect x="136.333" y="158" width="41" height="24" rx="4" fill="#019AEB"/>
<path d="M151.839 169.271C151.839 171.24 151.425 172.71 150.595 173.681C149.766 174.651 148.51 175.137 146.828 175.137C146.236 175.137 145.787 175.105 145.482 175.041V173.346C145.865 173.441 146.266 173.489 146.685 173.489C147.391 173.489 147.972 173.387 148.428 173.182C148.884 172.972 149.232 172.646 149.474 172.204C149.716 171.757 149.855 171.145 149.891 170.365H149.809C149.545 170.794 149.239 171.094 148.893 171.268C148.547 171.441 148.114 171.527 147.594 171.527C146.724 171.527 146.038 171.249 145.536 170.693C145.035 170.133 144.785 169.356 144.785 168.362C144.785 167.291 145.088 166.446 145.694 165.826C146.304 165.202 147.134 164.89 148.182 164.89C148.92 164.89 149.565 165.063 150.117 165.409C150.673 165.756 151.099 166.259 151.395 166.92C151.691 167.576 151.839 168.36 151.839 169.271ZM148.223 166.585C147.786 166.585 147.444 166.735 147.198 167.036C146.952 167.337 146.828 167.77 146.828 168.335C146.828 168.818 146.94 169.201 147.163 169.483C147.387 169.766 147.726 169.907 148.182 169.907C148.61 169.907 148.977 169.768 149.283 169.49C149.588 169.208 149.741 168.884 149.741 168.52C149.741 167.977 149.597 167.519 149.31 167.146C149.027 166.772 148.665 166.585 148.223 166.585ZM160.087 169.271C160.087 171.24 159.673 172.71 158.843 173.681C158.014 174.651 156.758 175.137 155.077 175.137C154.484 175.137 154.035 175.105 153.73 175.041V173.346C154.113 173.441 154.514 173.489 154.933 173.489C155.639 173.489 156.22 173.387 156.676 173.182C157.132 172.972 157.481 172.646 157.722 172.204C157.964 171.757 158.103 171.145 158.139 170.365H158.057C157.793 170.794 157.487 171.094 157.141 171.268C156.795 171.441 156.362 171.527 155.842 171.527C154.972 171.527 154.286 171.249 153.785 170.693C153.283 170.133 153.033 169.356 153.033 168.362C153.033 167.291 153.336 166.446 153.942 165.826C154.552 165.202 155.382 164.89 156.43 164.89C157.168 164.89 157.813 165.063 158.365 165.409C158.921 165.756 159.347 166.259 159.643 166.92C159.939 167.576 160.087 168.36 160.087 169.271ZM156.471 166.585C156.034 166.585 155.692 166.735 155.446 167.036C155.2 167.337 155.077 167.77 155.077 168.335C155.077 168.818 155.188 169.201 155.411 169.483C155.635 169.766 155.974 169.907 156.43 169.907C156.858 169.907 157.225 169.768 157.531 169.49C157.836 169.208 157.989 168.884 157.989 168.52C157.989 167.977 157.845 167.519 157.558 167.146C157.275 166.772 156.913 166.585 156.471 166.585ZM164.077 170.816H161.431V169.319H164.077V166.653H165.574V169.319H168.219V170.816H165.574V173.448H164.077V170.816Z" fill="white"/>
<rect width="313.667" height="112" transform="translate(315.667 114)" fill="#252A2E"/>
<rect x="448" y="156" width="49" height="28" rx="4" fill="#019AEB"/>
<path d="M467.759 169.271C467.759 171.24 467.344 172.71 466.515 173.681C465.685 174.651 464.43 175.137 462.748 175.137C462.156 175.137 461.707 175.105 461.401 175.041V173.346C461.784 173.441 462.185 173.489 462.604 173.489C463.311 173.489 463.892 173.387 464.348 173.182C464.803 172.972 465.152 172.646 465.394 172.204C465.635 171.757 465.774 171.145 465.811 170.365H465.729C465.464 170.794 465.159 171.094 464.812 171.268C464.466 171.441 464.033 171.527 463.514 171.527C462.643 171.527 461.957 171.249 461.456 170.693C460.955 170.133 460.704 169.356 460.704 168.362C460.704 167.291 461.007 166.446 461.613 165.826C462.224 165.202 463.053 164.89 464.102 164.89C464.84 164.89 465.485 165.063 466.036 165.409C466.592 165.756 467.018 166.259 467.314 166.92C467.611 167.576 467.759 168.36 467.759 169.271ZM464.143 166.585C463.705 166.585 463.363 166.735 463.117 167.036C462.871 167.337 462.748 167.77 462.748 168.335C462.748 168.818 462.86 169.201 463.083 169.483C463.306 169.766 463.646 169.907 464.102 169.907C464.53 169.907 464.897 169.768 465.202 169.49C465.507 169.208 465.66 168.884 465.66 168.52C465.66 167.977 465.517 167.519 465.229 167.146C464.947 166.772 464.585 166.585 464.143 166.585ZM476.007 169.271C476.007 171.24 475.592 172.71 474.763 173.681C473.933 174.651 472.678 175.137 470.996 175.137C470.404 175.137 469.955 175.105 469.649 175.041V173.346C470.032 173.441 470.433 173.489 470.853 173.489C471.559 173.489 472.14 173.387 472.596 173.182C473.051 172.972 473.4 172.646 473.642 172.204C473.883 171.757 474.022 171.145 474.059 170.365H473.977C473.712 170.794 473.407 171.094 473.061 171.268C472.714 171.441 472.281 171.527 471.762 171.527C470.891 171.527 470.205 171.249 469.704 170.693C469.203 170.133 468.952 169.356 468.952 168.362C468.952 167.291 469.255 166.446 469.861 165.826C470.472 165.202 471.301 164.89 472.35 164.89C473.088 164.89 473.733 165.063 474.284 165.409C474.84 165.756 475.266 166.259 475.562 166.92C475.859 167.576 476.007 168.36 476.007 169.271ZM472.391 166.585C471.953 166.585 471.611 166.735 471.365 167.036C471.119 167.337 470.996 167.77 470.996 168.335C470.996 168.818 471.108 169.201 471.331 169.483C471.554 169.766 471.894 169.907 472.35 169.907C472.778 169.907 473.145 169.768 473.45 169.49C473.756 169.208 473.908 168.884 473.908 168.52C473.908 167.977 473.765 167.519 473.478 167.146C473.195 166.772 472.833 166.585 472.391 166.585ZM479.996 170.816H477.351V169.319H479.996V166.653H481.493V169.319H484.139V170.816H481.493V173.448H479.996V170.816Z" fill="white"/>
<rect width="313.667" height="112" transform="translate(631.333 114)" fill="#252A2E"/>
<rect x="763.667" y="154" width="49" height="32" rx="4" fill="#019AEB"/>
<path d="M783.425 169.271C783.425 171.24 783.011 172.71 782.181 173.681C781.352 174.651 780.096 175.137 778.415 175.137C777.822 175.137 777.373 175.105 777.068 175.041V173.346C777.451 173.441 777.852 173.489 778.271 173.489C778.977 173.489 779.558 173.387 780.014 173.182C780.47 172.972 780.819 172.646 781.06 172.204C781.302 171.757 781.441 171.145 781.477 170.365H781.395C781.131 170.794 780.825 171.094 780.479 171.268C780.133 171.441 779.7 171.527 779.18 171.527C778.31 171.527 777.624 171.249 777.123 170.693C776.621 170.133 776.371 169.356 776.371 168.362C776.371 167.291 776.674 166.446 777.28 165.826C777.89 165.202 778.72 164.89 779.768 164.89C780.506 164.89 781.151 165.063 781.703 165.409C782.259 165.756 782.685 166.259 782.981 166.92C783.277 167.576 783.425 168.36 783.425 169.271ZM779.809 166.585C779.372 166.585 779.03 166.735 778.784 167.036C778.538 167.337 778.415 167.77 778.415 168.335C778.415 168.818 778.526 169.201 778.75 169.483C778.973 169.766 779.312 169.907 779.768 169.907C780.196 169.907 780.563 169.768 780.869 169.49C781.174 169.208 781.327 168.884 781.327 168.52C781.327 167.977 781.183 167.519 780.896 167.146C780.613 166.772 780.251 166.585 779.809 166.585ZM791.673 169.271C791.673 171.24 791.259 172.71 790.429 173.681C789.6 174.651 788.344 175.137 786.663 175.137C786.07 175.137 785.621 175.105 785.316 175.041V173.346C785.699 173.441 786.1 173.489 786.519 173.489C787.225 173.489 787.806 173.387 788.262 173.182C788.718 172.972 789.067 172.646 789.308 172.204C789.55 171.757 789.689 171.145 789.725 170.365H789.643C789.379 170.794 789.073 171.094 788.727 171.268C788.381 171.441 787.948 171.527 787.428 171.527C786.558 171.527 785.872 171.249 785.371 170.693C784.869 170.133 784.619 169.356 784.619 168.362C784.619 167.291 784.922 166.446 785.528 165.826C786.139 165.202 786.968 164.89 788.016 164.89C788.754 164.89 789.399 165.063 789.951 165.409C790.507 165.756 790.933 166.259 791.229 166.92C791.525 167.576 791.673 168.36 791.673 169.271ZM788.057 166.585C787.62 166.585 787.278 166.735 787.032 167.036C786.786 167.337 786.663 167.77 786.663 168.335C786.663 168.818 786.774 169.201 786.998 169.483C787.221 169.766 787.56 169.907 788.016 169.907C788.444 169.907 788.811 169.768 789.117 169.49C789.422 169.208 789.575 168.884 789.575 168.52C789.575 167.977 789.431 167.519 789.144 167.146C788.861 166.772 788.499 166.585 788.057 166.585ZM795.663 170.816H793.017V169.319H795.663V166.653H797.16V169.319H799.805V170.816H797.16V173.448H795.663V170.816Z" fill="white"/>
</g>
<defs>
<clipPath id="clip0_471_97432">
<rect width="945" height="226" fill="white"/>
</clipPath>
</defs>
</svg>
